T: Why Were You Playing That?
M: 4/4
L: 1/8
K: Gmaj
dc |: BGGB AGFA | G3D EDB,D | G,B,DG BG~G2 | FGAB cedc |
BGGB AGFA | G3D EDB,D | G,B,DG BG~G2 | AGFA G2dc :|
BG~G2 dGBd | ~g2fg edBG | cBce dBGB | Ad^cd ed=cA |
BG~G2 dGBd | ~g2fg edBG | EDEc BG~G2 |1 AGFA G3 A  :|2 AGFA G2 ||
</html>
